images/youtube.svg

<svg width="27" height="18" viewBox="0 0 27 18" fill="none" xmlns="http://www.w3.org/2000/svg">
<path opacity="0.6" d="M26.4218 2.8242C26.269 2.27917 25.9714 1.78573 25.5606 1.39634C25.1382 0.994965 24.6204 0.707855 24.0563 0.562105C21.9448 0.00557517 13.4856 0.00557529 13.4856 0.00557529C9.95901 -0.0345481 6.43331 0.141925 2.92838 0.533997C2.36419 0.690515 1.84743 0.984041 1.42406 1.38847C1.00807 1.78872 0.706756 2.28229 0.549353 2.82308C0.171243 4.86002 -0.0124694 6.92829 0.000693901 8.99999C-0.0127977 11.0698 0.170464 13.1374 0.549353 15.1769C0.703383 15.7155 1.00357 16.2068 1.42069 16.6037C1.8378 17.0005 2.35723 17.2872 2.92838 17.439C5.06792 17.9944 13.4856 17.9944 13.4856 17.9944C17.0166 18.0346 20.5468 17.8581 24.0563 17.466C24.6204 17.3202 25.1382 17.0331 25.5606 16.6318C25.9766 16.2349 26.2723 15.7413 26.4207 15.2039C26.8087 13.1677 26.9973 11.0986 26.9839 9.02585C27.0131 6.94432 26.8247 4.86544 26.4218 2.82308V2.8242ZM10.7962 12.8496V5.15151L17.8344 9.00112L10.7962 12.8496Z" fill="white"/>
</svg>

<svg width="27" height="18" fill="none" xmlns="http://www.w3.org/2000/svg"><path opacity=".6" d="M26.422 2.824a3.132 3.132 0 0 0-.861-1.428 3.43 3.43 0 0 0-1.505-.834C21.945.006 13.486.006 13.486.006A86.149 86.149 0 0 0 2.928.534a3.553 3.553 0 0 0-1.504.854c-.416.4-.717.894-.875 1.435A32.706 32.706 0 0 0 .001 9c-.014 2.07.17 4.137.548 6.177a3.18 3.18 0 0 0 .872 1.427c.417.396.936.683 1.507.835 2.14.555 10.558.555 10.558.555 3.53.04 7.06-.136 10.57-.528a3.43 3.43 0 0 0 1.505-.834c.416-.397.711-.89.86-1.428a31.93 31.93 0 0 0 .563-6.178c.03-2.082-.16-4.16-.562-6.203v.001ZM10.796 12.85V5.152l7.038 3.85-7.038 3.848Z" fill="#fff"/></svg>
